app/assets/icons/polaris/TapChipMajor.svg

<svg viewBox="0 0 20 20" xmlns="http://www.w3.org/2000/svg"><path fill-rule="evenodd" d="M5 1.5a1.5 1.5 0 0 1 1.5-1.5h12a1.5 1.5 0 0 1 1.5 1.5v8a1.5 1.5 0 0 1-1.5 1.5h-4.5v5.5a2.5 2.5 0 0 1-2.5 2.5h-8a2.5 2.5 0 0 1-2.5-2.5v-10.5a4 4 0 0 1 4-4v-.5zm0 2.5a2 2 0 0 0-2 2v7h9v-2h-5.5a1.5 1.5 0 0 1-1.5-1.5v-5.5zm3 2a1 1 0 0 1 1-1h1a1 1 0 1 1 0 2h-1a1 1 0 0 1-1-1zm-5 10.5v-1.5h9v1.5a.5.5 0 0 1-.5.5h-8a.5.5 0 0 1-.5-.5z"/></svg>

<svg viewBox="0 0 20 20" xmlns="http://www.w3.org/2000/svg"><path fill-rule="evenodd" d="M5 1.5A1.5 1.5 0 0 1 6.5 0h12A1.5 1.5 0 0 1 20 1.5v8a1.5 1.5 0 0 1-1.5 1.5H14v5.5a2.5 2.5 0 0 1-2.5 2.5h-8A2.5 2.5 0 0 1 1 16.5V6a4 4 0 0 1 4-4v-.5zM5 4a2 2 0 0 0-2 2v7h9v-2H6.5A1.5 1.5 0 0 1 5 9.5V4zm3 2a1 1 0 0 1 1-1h1a1 1 0 1 1 0 2H9a1 1 0 0 1-1-1zM3 16.5V15h9v1.5a.5.5 0 0 1-.5.5h-8a.5.5 0 0 1-.5-.5z"/></svg>
